docs/img/contact/mail.svg

<?xml version="1.0" encoding="UTF-8"?>
<svg width="44px" height="44px" viewBox="0 0 44 44" version="1.1" xmlns="http://www.w3.org/2000/svg" xmlns:xlink="http://www.w3.org/1999/xlink">
    <!-- Generator: Sketch 60 (88103) - https://sketch.com -->
    <title>mail</title>
    <desc>Created with Sketch.</desc>
    <g id="RomDim" stroke="none" stroke-width="1" fill="none" fill-rule="evenodd">
        <g id="PROJECT-PAGE-2560" transform="translate(-461.000000, -4350.000000)">
            <rect fill="#FFFFFF" x="0" y="0" width="2560" height="4446"></rect>
            <rect id="Rectangle" fill="#FFFFFF" x="250" y="0" width="2000" height="4446"></rect>
            <g id="Footer" transform="translate(250.000000, 4186.000000)">
                <rect id="Rectangle" x="0" y="0" width="2000" height="260"></rect>
                <g id="Contact" transform="translate(35.000000, 164.000000)">
                    <g id="mail" transform="translate(176.000000, 0.000000)">
                        <g id="md/mail">
                            <g>
                                <g>
                                    <circle id="Oval" fill="#000000" cx="22" cy="22" r="22"></circle>
                                    <path d="M32.3542982,13.3023256 L11.6457018,13.3023256 C10.3055907,13.3023256 9.20930233,14.3068721 9.20930233,15.5349012 L9.20930233,29.4883547 C9.20930233,30.7163837 10.3055907,31.7209302 11.6457018,31.7209302 L32.3542982,31.7209302 C33.6944093,31.7209302 34.7906977,30.7163837 34.7906977,29.4883547 L34.7906977,15.5349012 C34.7906977,14.3068721 33.6944093,13.3023256 32.3542982,13.3023256 Z M32.744186,18.5550558 L22.5116279,24.5581395 L12.2790698,18.5550558 L12.2790698,16.372093 L22.5116279,22.3751767 L32.744186,16.372093 L32.744186,18.5550558 Z" id="Shape" fill="#FFFFFF" fill-rule="nonzero"></path>
                                </g>
                            </g>
                        </g>
                    </g>
                </g>
            </g>
        </g>
    </g>
</svg>

<svg width="44" height="44" xmlns="http://www.w3.org/2000/svg"><g fill="none" fill-rule="evenodd"><path fill="#FFF" d="M-461-4350h2560V96H-461z"/><path fill="#FFF" d="M-211-4350h2000V96H-211z"/><path d="M-211-164h2000V96H-211z"/><g><circle fill="#000" cx="22" cy="22" r="22"/><path d="M32.354 13.302H11.646c-1.34 0-2.437 1.005-2.437 2.233v13.953c0 1.228 1.097 2.233 2.437 2.233h20.708c1.34 0 2.437-1.005 2.437-2.233V15.535c0-1.228-1.097-2.233-2.437-2.233zm.39 5.253l-10.232 6.003-10.233-6.003v-2.183l10.233 6.003 10.232-6.003v2.183z" fill="#FFF" fill-rule="nonzero"/></g></g></svg>
